assets/images/icons/custos.svg

<svg width="24" height="24" viewBox="0 0 24 24" fill="none" xmlns="http://www.w3.org/2000/svg">
<path d="M18.9981 6.99929V3.9996C18.9981 3.73441 18.8928 3.48008 18.7053 3.29256C18.5178 3.10504 18.2634 2.9997 17.9982 2.9997H4.99955C4.46917 2.9997 3.96052 3.21039 3.58548 3.58542C3.21045 3.96046 2.99976 4.46911 2.99976 4.99949C2.99976 5.52987 3.21045 6.03853 3.58548 6.41356C3.96052 6.7886 4.46917 6.99929 4.99955 6.99929H19.998C20.2632 6.99929 20.5176 7.10464 20.7051 7.29216C20.8926 7.47967 20.9979 7.734 20.9979 7.99919V11.9988M20.9979 11.9988H17.9982C17.4679 11.9988 16.9592 12.2095 16.5842 12.5845C16.2091 12.9595 15.9984 13.4682 15.9984 13.9986C15.9984 14.529 16.2091 15.0376 16.5842 15.4127C16.9592 15.7877 17.4679 15.9984 17.9982 15.9984H20.9979C21.2631 15.9984 21.5175 15.893 21.705 15.7055C21.8925 15.518 21.9978 15.2637 21.9978 14.9985V12.9987C21.9978 12.7335 21.8925 12.4792 21.705 12.2916C21.5175 12.1041 21.2631 11.9988 20.9979 11.9988Z" stroke="#6A7282" stroke-width="1.9998" stroke-linecap="round" stroke-linejoin="round"/>
<path d="M2.99976 4.99949V18.9981C2.99976 19.5285 3.21045 20.0371 3.58548 20.4121C3.96052 20.7872 4.46917 20.9979 4.99955 20.9979H19.998C20.2632 20.9979 20.5176 20.8925 20.7051 20.705C20.8926 20.5175 20.9979 20.2632 20.9979 19.998V15.9984" stroke="#6A7282" stroke-width="1.9998" stroke-linecap="round" stroke-linejoin="round"/>
</svg>

<svg xmlns="http://www.w3.org/2000/svg" width="24" height="24" fill="none"><path stroke="#6a7282" stroke-linecap="round" stroke-linejoin="round" stroke-width="2" d="M18.998 7V4a1 1 0 0 0-1-1H5a2 2 0 0 0 0 4h14.998a1 1 0 0 1 1 1v3.999m0 0h-3a2 2 0 0 0 0 4h3a1 1 0 0 0 1-1v-2a1 1 0 0 0-1-1"/><path stroke="#6a7282" stroke-linecap="round" stroke-linejoin="round" stroke-width="2" d="M3 5v13.998a2 2 0 0 0 2 2h14.998a1 1 0 0 0 1-1v-4"/></svg>
